images/icons/store-building.svg

<svg height="32pt" viewBox="0 0 32 32" width="32pt" xmlns="http://www.w3.org/2000/svg"><g fill="#fff"><path d="m14.804688 23.960938c.164062 0 .324218-.066407.4375-.183594.113281-.113282.179687-.273438.179687-.433594 0-.164062-.066406-.320312-.179687-.4375-.113282-.113281-.273438-.179688-.4375-.179688-.160157 0-.320313.066407-.433594.179688-.117188.117188-.179688.273438-.179688.4375 0 .160156.0625.320312.179688.433594.113281.117187.273437.183594.433594.183594zm0 0"/><path d="m27.71875 17.851562h-6.117188c-.34375 0-.617187.277344-.617187.617188v6.152344c0 .339844.273437.613281.617187.613281h6.117188c.339844 0 .617188-.273437.617188-.613281v-6.152344c0-.339844-.277344-.617188-.617188-.617188zm-5.503906 1.230469h1.828125v4.921875h-1.828125zm4.886718 4.921875h-1.824218v-4.921875h1.824218zm0 0"/><path d="m19.054688 7.960938h-6.109376c-.339843 0-.617187.277343-.617187.617187v6.152344c0 .339843.277344.613281.617187.613281h6.109376c.339843 0 .617187-.273438.617187-.613281v-6.152344c0-.339844-.277344-.617187-.617187-.617187zm-5.492188 1.234374h1.820312v4.917969h-1.820312zm4.875 4.917969h-1.820312v-4.917969h1.820312zm0 0"/><path d="m27.71875 7.960938h-6.117188c-.34375 0-.617187.277343-.617187.617187v6.152344c0 .339843.273437.613281.617187.613281h6.117188c.339844 0 .617188-.273438.617188-.613281v-6.152344c0-.339844-.277344-.617187-.617188-.617187zm-5.503906 1.234374h1.828125v4.917969h-1.828125zm4.886718 4.917969h-1.824218v-4.917969h1.824218zm0 0"/><path d="m10.46875 17.851562h-6.121094c-.339844 0-.617187.277344-.617187.617188v6.152344c0 .339844.277343.613281.617187.613281h6.121094c.339844 0 .613281-.273437.613281-.613281v-6.152344c0-.339844-.273437-.617188-.613281-.617188zm-5.503906 1.230469h1.828125v4.921875h-1.828125zm4.886718 4.921875h-1.828124v-4.921875h1.828124zm0 0"/><path d="m10.46875 7.960938h-6.121094c-.339844 0-.617187.277343-.617187.617187v6.152344c0 .339843.277343.613281.617187.613281h6.121094c.339844 0 .613281-.273438.613281-.613281v-6.152344c0-.339844-.273437-.617187-.613281-.617187zm-5.503906 1.234374h1.828125v4.917969h-1.828125zm4.886718 4.917969h-1.828124v-4.917969h1.828124zm0 0"/><path d="m31.382812 27.71875h-.597656v-23.441406c.304688-.039063.539063-.296875.539063-.613282 0-.339843-.273438-.617187-.613281-.617187h-29.472657c-.339843 0-.617187.277344-.617187.617187 0 .332032.261718.601563.59375.617188v23.4375h-.597656c-.339844 0-.617188.277344-.617188.617188 0 .339843.277344.617187.617188.617187h30.765624c.339844 0 .617188-.277344.617188-.617187 0-.339844-.277344-.617188-.617188-.617188zm-28.9375-23.4375h27.109376v23.4375h-9.882813v-9.25c0-.339844-.277344-.617188-.617187-.617188h-6.109376c-.339843 0-.617187.277344-.617187.617188v9.25h-9.882813zm15.992188 23.4375h-4.875v-8.636719h4.875zm0 0"/><path d="m4.347656 6.746094h23.253906c.339844 0 .613282-.277344.613282-.617188s-.273438-.617187-.613282-.617187h-23.253906c-.339844 0-.617187.277343-.617187.617187s.277343.617188.617187.617188zm0 0"/></g></svg>

<?xml version="1.0" encoding="UTF-8"?>
<svg xmlns="http://www.w3.org/2000/svg" xmlns:xlink="http://www.w3.org/1999/xlink" width="32pt" height="32pt" viewBox="0 0 32 32" version="1.1">
<g id="surface1">
<path style=" stroke:none;fill-rule:nonzero;fill:rgb(255,255,255);fill-opacity:1;" d="M 14.804688 23.960938 C 14.96875 23.960938 15.128906 23.894531 15.242188 23.777344 C 15.355469 23.664062 15.421875 23.503906 15.421875 23.34375 C 15.421875 23.179688 15.355469 23.023438 15.242188 22.90625 C 15.128906 22.792969 14.96875 22.726562 14.804688 22.726562 C 14.644531 22.726562 14.484375 22.792969 14.371094 22.90625 C 14.253906 23.023438 14.191406 23.179688 14.191406 23.34375 C 14.191406 23.503906 14.253906 23.664062 14.371094 23.777344 C 14.484375 23.894531 14.644531 23.960938 14.804688 23.960938 Z M 14.804688 23.960938 "/>
<path style=" stroke:none;fill-rule:nonzero;fill:rgb(255,255,255);fill-opacity:1;" d="M 27.71875 17.851562 L 21.601562 17.851562 C 21.257812 17.851562 20.984375 18.128906 20.984375 18.46875 L 20.984375 24.621094 C 20.984375 24.960938 21.257812 25.234375 21.601562 25.234375 L 27.71875 25.234375 C 28.058594 25.234375 28.335938 24.960938 28.335938 24.621094 L 28.335938 18.46875 C 28.335938 18.128906 28.058594 17.851562 27.71875 17.851562 Z M 22.214844 19.082031 L 24.042969 19.082031 L 24.042969 24.003906 L 22.214844 24.003906 Z M 27.101562 24.003906 L 25.277344 24.003906 L 25.277344 19.082031 L 27.101562 19.082031 Z M 27.101562 24.003906 "/>
<path style=" stroke:none;fill-rule:nonzero;fill:rgb(255,255,255);fill-opacity:1;" d="M 19.054688 7.960938 L 12.945312 7.960938 C 12.605469 7.960938 12.328125 8.238281 12.328125 8.578125 L 12.328125 14.730469 C 12.328125 15.070312 12.605469 15.34375 12.945312 15.34375 L 19.054688 15.34375 C 19.394531 15.34375 19.671875 15.070312 19.671875 14.730469 L 19.671875 8.578125 C 19.671875 8.238281 19.394531 7.960938 19.054688 7.960938 Z M 13.5625 9.195312 L 15.382812 9.195312 L 15.382812 14.113281 L 13.5625 14.113281 Z M 18.4375 14.113281 L 16.617188 14.113281 L 16.617188 9.195312 L 18.4375 9.195312 Z M 18.4375 14.113281 "/>
<path style=" stroke:none;fill-rule:nonzero;fill:rgb(255,255,255);fill-opacity:1;" d="M 27.71875 7.960938 L 21.601562 7.960938 C 21.257812 7.960938 20.984375 8.238281 20.984375 8.578125 L 20.984375 14.730469 C 20.984375 15.070312 21.257812 15.34375 21.601562 15.34375 L 27.71875 15.34375 C 28.058594 15.34375 28.335938 15.070312 28.335938 14.730469 L 28.335938 8.578125 C 28.335938 8.238281 28.058594 7.960938 27.71875 7.960938 Z M 22.214844 9.195312 L 24.042969 9.195312 L 24.042969 14.113281 L 22.214844 14.113281 Z M 27.101562 14.113281 L 25.277344 14.113281 L 25.277344 9.195312 L 27.101562 9.195312 Z M 27.101562 14.113281 "/>
<path style=" stroke:none;fill-rule:nonzero;fill:rgb(255,255,255);fill-opacity:1;" d="M 10.46875 17.851562 L 4.347656 17.851562 C 4.007812 17.851562 3.730469 18.128906 3.730469 18.46875 L 3.730469 24.621094 C 3.730469 24.960938 4.007812 25.234375 4.347656 25.234375 L 10.46875 25.234375 C 10.808594 25.234375 11.082031 24.960938 11.082031 24.621094 L 11.082031 18.46875 C 11.082031 18.128906 10.808594 17.851562 10.46875 17.851562 Z M 4.964844 19.082031 L 6.792969 19.082031 L 6.792969 24.003906 L 4.964844 24.003906 Z M 9.851562 24.003906 L 8.023438 24.003906 L 8.023438 19.082031 L 9.851562 19.082031 Z M 9.851562 24.003906 "/>
<path style=" stroke:none;fill-rule:nonzero;fill:rgb(255,255,255);fill-opacity:1;" d="M 10.46875 7.960938 L 4.347656 7.960938 C 4.007812 7.960938 3.730469 8.238281 3.730469 8.578125 L 3.730469 14.730469 C 3.730469 15.070312 4.007812 15.34375 4.347656 15.34375 L 10.46875 15.34375 C 10.808594 15.34375 11.082031 15.070312 11.082031 14.730469 L 11.082031 8.578125 C 11.082031 8.238281 10.808594 7.960938 10.46875 7.960938 Z M 4.964844 9.195312 L 6.792969 9.195312 L 6.792969 14.113281 L 4.964844 14.113281 Z M 9.851562 14.113281 L 8.023438 14.113281 L 8.023438 9.195312 L 9.851562 9.195312 Z M 9.851562 14.113281 "/>
<path style=" stroke:none;fill-rule:nonzero;fill:rgb(255,255,255);fill-opacity:1;" d="M 31.382812 27.71875 L 30.785156 27.71875 L 30.785156 4.277344 C 31.089844 4.238281 31.324219 3.980469 31.324219 3.664062 C 31.324219 3.324219 31.050781 3.046875 30.710938 3.046875 L 1.238281 3.046875 C 0.898438 3.046875 0.621094 3.324219 0.621094 3.664062 C 0.621094 3.996094 0.882812 4.265625 1.214844 4.28125 L 1.214844 27.71875 L 0.617188 27.71875 C 0.277344 27.71875 0 27.996094 0 28.335938 C 0 28.675781 0.277344 28.953125 0.617188 28.953125 L 31.382812 28.953125 C 31.722656 28.953125 32 28.675781 32 28.335938 C 32 27.996094 31.722656 27.71875 31.382812 27.71875 Z M 2.445312 4.28125 L 29.554688 4.28125 L 29.554688 27.71875 L 19.671875 27.71875 L 19.671875 18.46875 C 19.671875 18.128906 19.394531 17.851562 19.054688 17.851562 L 12.945312 17.851562 C 12.605469 17.851562 12.328125 18.128906 12.328125 18.46875 L 12.328125 27.71875 L 2.445312 27.71875 Z M 18.4375 27.71875 L 13.5625 27.71875 L 13.5625 19.082031 L 18.4375 19.082031 Z M 18.4375 27.71875 "/>
<path style=" stroke:none;fill-rule:nonzero;fill:rgb(255,255,255);fill-opacity:1;" d="M 4.347656 6.746094 L 27.601562 6.746094 C 27.941406 6.746094 28.214844 6.46875 28.214844 6.128906 C 28.214844 5.789062 27.941406 5.511719 27.601562 5.511719 L 4.347656 5.511719 C 4.007812 5.511719 3.730469 5.789062 3.730469 6.128906 C 3.730469 6.46875 4.007812 6.746094 4.347656 6.746094 Z M 4.347656 6.746094 "/>
</g>
</svg>
